X:1
T:Sonatina d moll
T:Sonatina d moll
T:Christian Ritter
T:by Mutopia-2005/01/02-130 - public domain
T:by Mutopia-2005/01/02-130 - public domain
T:by Mutopia-2005/01/02-130 - public domain
T:by Mutopia-2005/01/02-130 - public domain
T:by Mutopia-2005/01/02-130 - public domain
C:Christian Ritter
Z:by Mutopia-2005/01/02-130 - public domain
%%score { ( 1 4 6 ) | ( 2 5 ) | 3 }
L:1/8
Q:1/4=120
M:4/4
K:F
V:1 treble nm="Pipe Organ" snm="Org."
V:4 treble 
V:6 treble 
V:2 bass 
V:5 bass 
V:3 bass 
V:1
 z/[I:staff +1] D,/4E,/4F,/4G,/4E,/4F,/4 D,/4E,/4F,/4G,/4A,/4=B,/4^C/4A,/4[I:staff -1] D/4A,/4D/4E/4F/4G/4E/4F/4 D/4E/4F/4G/4A/4=B/4^c/4A/4 | %1
 d/^c/4=B/4A/4G/4F/4E/4[I:staff +1] D/^C/4=B,/4A,/4G,/4F,/4E,/4 D,/E,/4F,/4G,/4A,/4B,/4C/4 D[I:staff -1] z | %2
[M:4/2] z8 d8- | d4 e4 [df]4 [^ce]4 | d6 c2 B4 A4- | A2 G^F G4- G2 AG =F3 E | E6 E2 D6 E2 | %7
 ^C4 D4- D2 ED C3 D | D2 E2 F2 G2 A2 =B2 c2 TBA | d8- d4 ^c2 =B2 | ^c2 d2 e4- e4 d2 e2 | %11
 f2 gf e2 d2 e4 f4 | e4 d4 ^c4 d4 | c4 B4 A4 B4 | A4 G4- G4 F4 | E8 D8 | A8 D4 G4 | %17
 F4 D2 E2 F2 E2 F2 G2 | A6 G2 F2 E2 F2 G2 | E4 A4- A4 A4- | A2 GF G4- G4 F4 | E8 D6 E2 | %22
 F2 E2 F2 G2 A6 GF | E4 A4- A4 G4- | G2 FE F2 G2 E4 F2 G2 | A2 =B2 c2 d2 e6 dc | =B8 A8 | z16 | %28
 d8 A4 d4 | [Ac]4 A2 =B2 c2 B2 c2 d2 | e6 d2 c8 | =B2 c2 d4- d2 c2 c4- | [Ac]6 [G=B]2 c4 [ce]4- | %33
 [ce]4 [=Bd]4- [Bd]4 c4 | =B8 A4 a4 | d4 g4 f4 d2 e2 | f2 e2 f2 g2 a6 gf | %37
 e2 d2 e2 f2 g2 a2 g2 f2 | e8 d8 | A4 d4 c4 A2 =B2 | c2 =B2 c2 d2 e4 f4- | f4 e4 f2 e2 d2 e2 | %42
 c6 B2 A8 | G4 E2 F2 G2 F2 G2 A2 | [GB]4 A4 G8 | F8 F8 | C4 F4 E4 C2 D2 | E2 D2 E2 F2 [DG]8 | %48
 D4 G4 F4 D2 E2 | F2 E2 F2 G2 A8- | A8 G4 A4 | B8 A8 | G8 F4 E2 D2 | ^C4 D4- D4 C4 |[M:4/4] D8 | %55
 z/ f/e/d/ c/d/c/B/ A/d/c/B/ A/B/A/G/ | F/B/A/G/ F/G/E/G/ F/G/E/G/ F/G/E/G/ | %57
 F/C/D/E/ F/G/A/B/ c>B A/G/F/G/ | E/c/d/e/ f/g/a/b/ c'>b a/g/f/g/ | e/f/g z/ f e/ z/ d c/ z/ B A/ | %60
 z/ G F/ z/ E F/ G4 | z/ c'/b/a/ g/a/g/f/ e/a/g/f/ e/f/e/d/ | c/f/e/d/ c/d/c/B/ A/d/c/B/ A/B/A/G/ | %63
 F/B/A/G/ F/G/F/E/ D/E/^C/E/ D/E/C/E/ | D/E/^C/E/ D/E/C/E/ D/A,/=B,/C/ D/E/F/G/ | %65
 A>G F/E/D/E/ ^C/A/=B/^c/ d/e/f/g/ | a>g f/e/d/e/ ^c/d/e A/d/G/=c/ | %67
 F/B/E/A/ D/G/C/F/ B,/E/A,/D/ G,/^C/ z/ D/ | !fermata!E4 z4 | z2 A2 A2 A2- | A2 TG^F G4- | %71
 G2 G2 G2 G2 | F8- | F4 E2 D2 | A6 G2 | [DF]4 [^CE]4 | D6 ^C2 | D8 |] %78
V:2
 x8 | x6 z/ D,/D,, |[M:4/2] z8 D8- | D8 D4 E4 | F4 E4 D6 C2 | B,4- B,B,A,G, A,8 | %6
 A,4- A,4 A,4 G,4- | G,4 A,4- A,4 G,4 | F,2 G,2 A,2 =B,2 C2 D2 E2 TDC | %9
[K:treble] =B,2 C2 D2 E2 F2 GF E2 D2 | E2 D2 C2 =B,2 A,2 _B,C D4- | D2 ED ^C2 =B,2 A,4 A4 | %12
 TG4 F4 E4 F4 | TE4 D4 ^C4 D4 |[K:bass] A,4 B,4 E,4 F,2 G,2 | A,2 G,F, z2 G,2 A,8 | z16 | z16 | %18
 z16 | z16 | z16 | A,8 D,4 TG,4 | F,4 D,2 E,2 F,2 E,2 F,2 G,2 | A,6 G,2 ^F,4 G,4 | A,8 A,4 A,4 | %25
 C4 E4 E8 | E8 E4 D4- | D4 ^C4 A,4 B,4 | A,4 F,2 G,2 A,2 G,2 A,2 =B,2 | C6 =B,2 A,8 | %30
 G,4 E,2 F,2 G,2 F,2 G,2 A,2 | D4 D4 z4 C4 | D8 E4 E4 | F8 E8 | E6 D2 ^C8 | B,4 G,4 D8 | z16 | %37
 z16 |[K:treble] A8 D4 G4 | F4 D2 E2 F2 E2 F2 G2 | A6 =B2 c2 _B2 A2 B2 |[K:bass] C8 F,4 B,4 | %42
 A,4 F,2 G,2 A,2 G,2 A,2 B,2 | C8- C4 B,2 A,2 | G,4 A,2 B,2 C6 B,2 | A,4 F,2 G,2 A,2 G,2 A,2 B,2 | %46
 C4 A,4 [G,C]8 | G,4 C4 B,4 G,2 A,2 | B,2 A,2 B,2 C2 D8 | A,4 D4 C4 A,2 B,2 | C2 B,2 C2 D2 E4 C4 | %51
 D4 C2 B,2 C4 A,4 | B,4 A,2 G,2 A,4 G,2 F,2 | E,4 F,4 E,8 |[M:4/4] D,8 | z4 z/ F/E/D/ C/D/C/B,/ | %56
 A,/D/C/B,/ A,/B,/G,/B,/ A,/B,/G,/B,/ A,/B,/G,/B,/ | A,>B, C2 z/ C,/D,/E,/ F,/G,/A,/B,/ | %58
 C>B, A,/G,/F,/G,/ E,/C/D/E/[K:treble] F/G/A/B/ | c>d cB AGFE | %60
[K:bass] [B,D][A,C][G,B,][F,A,] [C,G,]4 |[K:treble] z4 z/ c/B/A/ G/A/G/F/ | %62
 E/A/G/F/ E/F/E/D/ C/F/E/D/ C/D/C/B,/ |[K:bass] A,/D/C/B,/ A,/B,/A,/G,/ F,/G,/E,/G,/ F,/G,/E,/G,/ | %64
 F,/G,/E,/G,/ F,/G,/E,/G,/ F,>[E,G,] [D,F,A,]2 | z/ A,,/=B,,/^C,/ D,/E,/F,/G,/ A,>G, F,/E,/D,/E,/ | %66
 ^C,/A,/=B,/^C/ D/E/F/G/ A>G FE | DCB,A, G,F,E,F, | [A,,E,]4 z4 | z2 C2 C2 C2 | [G,B,]8 | %71
 A,2 A,2 A,2 A,2 | [F,A,]8 | B,8 | A,6 D2 | A,4 A,3 A, | B,2 CB, A,2 G,2 | A,8 |] %78
V:3
 z8 | z8 |[M:4/2] D,,16- | D,,16- | D,,16- | D,,16 | A,,8 B,,8 | A,,4 D,,4 A,,8 | %8
 D,,4 D,4 C,4 A,,4 | =B,,8 A,,8- | A,,4- A,,2 G,,2 F,,4 B,,4 | A,,16- | A,,16 | A,,8- A,,4 D,4 | %14
 C,4 B,,4 A,,8- | A,,8 D,,8 | z16 | z16 | z16 | z16 | z16 | z16 | z16 | z16 | z16 | z16 | z16 | %27
 A,8 D,4 G,4 | F,4 D,2 E,2 F,2 E,2 F,2 G,2 | A,6 G,2 F,8 | E,4 C,2 D,2 E,2 D,2 E,2 F,2 | %31
 G,6 F,2 E,4 F,4 | D,8 C,4 A,,4 | D,8 E,8 | E,,8 A,,4 z4 | z16 | z16 | z16 | z16 | z16 | z16 | %41
 z16 | z16 | z16 | z8 C,8 | F,,4 B,,4 A,,4 F,,2 G,,2 | A,,2 G,,2 A,,2 B,,2 C,8- | C,4 A,,4 G,,8- | %48
 G,,6 A,,2 B,,6 C,2 | D,6 E,2 F,6 G,2 | A,6 B,2 C4 A,4 | G,8 F,8 | E,8 D,4 G,,4 | A,,8- A,,8 | %54
[M:4/4] D,,8 | z8 | z8 | z8 | z8 | z8 | z8 | z8 | z8 | z8 | z8 | z8 | z8 | z8 | z8 | ^F,,8 | %70
 G,,2 G,2 G,2 G,2 | ^C,8 | D,2 D,2 D,2 D,2 | G,,8- | G,,4 F,,2 B,,2 | A,,8 | D,,8- | D,,8 |] %78
V:4
 x8 | x8 |[M:4/2] z8 [FA]8- | [FA]4 G4 A4 G4 | A4 G4 F6 E2 | D8- D8- | D4 ^C4 x8 | x16 | %8
 A,4 D4 E4 A4- | A4 ^G4 A6 G2 | A4 A4- [FA]6 G2 | A8 [A^c]4 =c4 | TB4 A4 G4 A4 | TG4 F4 E4 F4 | %14
 E4 D4 ^C4 D4- | D4 T^C4 D8 | x16 | x16 | D8 A,4 D4 | C4 A,2 =B,2 C2 B,2 C2 D2 | E6 D2 ^C4 D4- | %21
 D4 ^C4 D2 =C2 TB,4 | A,8 D8- | D4 C4- C4 B,4 | D4 D4- D2 ^C2 D4 | E4 A4 A8- | A4 G4- G4 z4 | %27
 E8 D6 E2 | [FA]8 [DF]4 [FA]4 | E8 [FA]8 | [Gc]6 [F=B]2 [EG]8 | G4 [G=B]8 [FA]4 | F8 [EG]4 A4 | %33
 A8 z4 A4- | A4 ^G4 E8 | D4 x4 z4 d4 | A4 d4 c4 A2 =B2 | c2 =B2 c2 d2 e4 d4- | d4 ^c4 d8 | z16 | %40
 z16 | G8 A4 B4 | F8 C4 F4 | E4 C2 D2 E2 D2 E2 F2 | D2 E2 F4- F4 E4 | C4 D4 C8 | z16 | z16 | z16 | %49
 z8 F8- | F8 E4 F4- | F4 E4- E4 D4- | D4 ^C4 D4 B,4 | A,8 G,8 |[M:4/4] [^F,A,]8 | z8 | z8 | z8 | %58
 z8 | z8 | z4 [CE]4 | x8 | x8 | x8 | z8 | z8 | z8 | z8 | [A,^C]4 z4 | z2 D2 D2 D2 | D8 | %71
 E2 E2 E2 E2- | D2 D^C D2 =C2 | B,8 | ^C4 D4 | x8 | x8 | x8 |] %78
V:5
 x8 | x8 |[M:4/2] z8 [D,,A,,]8- | [D,,A,,]8- [D,,A,,]8 | x16 | x16 | x4 G,4 F,4 D,4 | %7
 E,4 F,2 E,2 E,8 | D,4 x12 |[K:treble] x16 | x16 | x16 | x16 | x16 |[K:bass] x16 | x4 E,4 x8 | %16
 x16 | x16 | x16 | x16 | x16 | x16 | x16 | x16 | D,8 A,,4 D,4 | C,4 A,,2 =B,,2 C,2 B,,2 C,2 D,2 | %26
 E,6 D,2 ^C,4 D,4 | G,6 G,2 F,4 G,4 | x16 | x16 | x16 | =B,6 A,2 [G,E]4 A,4- | %32
 A,2 G,2 F,4 G,4 A,4 | G,4 =B,4 ^G,4 A,4 | =B,8 z4 A,4 | x16 | x16 | x16 |[K:treble] x16 | x16 | %40
 x16 |[K:bass] x16 | x16 | x16 | x16 | x16 | x16 | x16 | x16 | x16 | x16 | x16 | x16 | x16 | %54
[M:4/4] x8 | x8 | x8 | x8 | x6[K:treble] x2 | x8 |[K:bass] z6 C,,2 |[K:treble] x8 | x8 | %63
[K:bass] x8 | x8 | x8 | x8 | x8 | x8 | x8 | x8 | x8 | x8 | G,6 F,2 | E,4 D,2 E,2 | %75
 F,2 G,2 A,2 G,2- | G,4 ^F,2 E,2 | [D,^F,]8 |] %78
V:6
 x8 | x8 |[M:4/2] x16 | x16 | x16 | x16 | x16 | x16 | x16 | x16 | x16 | x16 | x16 | x16 | x16 | %15
 x16 | x16 | x16 | x16 | x16 | x16 | x16 | x16 | x16 | x16 | x16 | x12 F4 | x16 | x16 | x16 | x16 | %31
 x16 | x16 | x16 | x16 | x16 | x16 | x8 z4 z4 | x16 | x16 | x16 | x16 | x16 | x16 | x16 | x16 | %46
 x16 | x16 | x16 | x16 | x16 | x16 | x16 | x16 |[M:4/4] x8 | x8 | x8 | x8 | x8 | x8 | x8 | x8 | %62
 x8 | x8 | x8 | x8 | x8 | x8 | x8 | x6 z2 | x8 | x8 | x8 | x8 | x8 | x8 | x8 | x8 |] %78

